X: 12575
T: Farewell To Spain
R: waltz
M: 3/4
K: Bminor
B2|e2 e2 ed|(e4 e)f|g4 fe|d2 B2 BA|B2 e2 ed|d(e3 e)f|g3 a ag|1 f4 e/d/c:|2 f4 ga||
b2 g2 b2|a4 ga|b2 e3 f|ed B2 e2|d2 B2 A2|(G4 G)A|B2 e2 d2|e4 d2|
g2 b2 d'b|a4 ga|b2 e2 ef|ed B2 e2|d2 B2 A2|G3 A B2|B2 e2 ed|e4 z2||

